apps/scalable/preferences-system-network-dsl.svg

<svg width="64" height="64" version="1.1" viewBox="0 0 16.934 16.934" xmlns="http://www.w3.org/2000/svg">
 <circle cx="8.467" cy="8.467" r="7.144" fill="#1c7cbf" stroke="#114e77" stroke-width=".52919" style="paint-order:markers stroke fill"/>
 <circle cx="8.467" cy="8.467" r="7.144" fill="#1c7cbf" stroke-width=".26459" style="paint-order:markers stroke fill"/>
 <g fill="#fff" stroke-width=".26459">
  <path d="m4.559 4.7627c-0.18019 0-0.32545 0.15002-0.32545 0.33656v5.9417c0 0.18654 0.14526 0.33603 0.32545 0.33656h1.2621l0.69191 0.79378h3.908l0.69191-0.79378h1.2621c0.18019 0 0.32545-0.15002 0.32545-0.33656v-5.9417c0-0.18654-0.14526-0.33656-0.32545-0.33656zm0.73292 1.0584h6.3503v4.4981h-1.0584l-0.79378 0.79378h-2.6459l-0.52919-0.79378h-1.323z" style="paint-order:markers stroke fill"/>
  <path d="m7.144 11.113-0.52919-0.79378h-1.323v-4.4981h6.3503v4.4981h-1.0584l-0.79378 0.79378z" opacity=".35"/>
  <path d="m6.0857 6.6148h0.79378v-0.79378h-0.79378zm1.323 0h0.79378v-0.79378h-0.79378zm1.323 0h0.79378v-0.79378h-0.79378zm1.323 0h0.79378v-0.79378h-0.79378z" opacity=".5"/>
 </g>
</svg>

<svg width="64" height="64" viewBox="0 0 16.934 16.934" xmlns="http://www.w3.org/2000/svg"><circle cx="8.467" cy="8.467" r="7.144" fill="#1c7cbf" stroke="#114e77" stroke-width=".529" style="paint-order:markers stroke fill"/><circle cx="8.467" cy="8.467" r="7.144" fill="#1c7cbf" style="paint-order:markers stroke fill"/><g fill="#fff" stroke-width=".265"><path d="M4.559 4.763a.33.33 0 0 0-.325.336v5.942a.33.33 0 0 0 .325.337h1.262l.692.793h3.908l.692-.793h1.262a.33.33 0 0 0 .325-.337V5.099a.33.33 0 0 0-.325-.336zm.733 1.058h6.35v4.498h-1.058l-.794.794H7.144l-.53-.794H5.293z" style="paint-order:markers stroke fill"/><path d="m7.144 11.113-.53-.794H5.293V5.821h6.35v4.498h-1.058l-.794.794z" opacity=".35"/><path d="M6.086 6.615h.793V5.82h-.793zm1.323 0h.793V5.82H7.41zm1.323 0h.793V5.82h-.793zm1.323 0h.793V5.82h-.793z" opacity=".5"/></g></svg>
